X:1
T:How Should We Spend Our Time?
T:How Should We Spend Our Time?
T:William James Kirkpatrick
T:Maggie Metcalf, 1875
T:Public Domain Courtesy of the Cyber Hymnal™
T:Public Domain Courtesy of the Cyber Hymnal™
C:William James Kirkpatrick
Z:Public Domain
Z:Courtesy of the Cyber Hymnal™
%%score ( 1 2 ) ( 3 4 )
L:1/8
Q:1/4=105
M:6/8
K:Eb
V:1 treble 
V:2 treble 
V:3 bass 
V:4 bass 
V:1
 [EG] | [EG]2 [EB] [DA]2 [DF] | E3- E2 E | [DF]2 [DF] [EG]2 [FA] | [EG]3- [EG]2 [EB] | %5
w: 1.~How|should we spend our|time? * In|fol- ly and in|sin? * Nay,|
w: 2.~How|should we spend our|time? * In|heap- ing world- ly|gains? * Oh,|
w: 3.~How|should we spend our|time? * To|gain th’ap- plause of|man? * No,|
w: 4.~Then|let us trea- sure|time, * And|live in do- ing|good, * Re-|
 [EB]2 [EG] ([EG][DA])[EB] | [Ec]2 [Ad] [Ge]2 [Gc] | [FB]2 [DF] [Fd]2 [Ec] | [DB]3- [DB]2 z || %9
w: ra- ther let * us|seek while here Some|souls for Christ to|win. *|
w: no, we’ll lay * our|trea- sure up In|Heav’n, where Je- sus|reigns. *|
w: no, we’ll work, * and|al- ways seek To|praise the great I|AM. *|
w: mem- bering that * to|God we owe Our|last- ing gra- ti-|tude. *|
"^Refrain" [EB]3 [EB][Ec][EB] | [DA]3 [DA]3 | [Fd]3 [Fd][Fc][FB] | [GB]3- [GB]2 z | %13
w: ||||
w: ||||
w: ||||
w: ||||
 [Ac]3 [Ac][Ad][Ae] | [Ge]3 [EB]2 [EG] | [DB]3 [DA]2 [DF] | [EG]3- [EG]2 z | [EB]3 [FB][FB][FB] | %18
w: |||||
w: |||||
w: |||||
w: |||||
 [=Ec]3 [Fc]3 | [Fd]3 [Gd][Gd][Gd] | [Ge]3- [Ge]2 z | [Ae]3 [Ae][Ad][Ac] | [GB]3 [EG]3 | %23
w: |||||
w: |||||
w: |||||
w: |||||
 [FB]3 [FB][Ac][Ad] | [Ge]6 |] %25
w: ||
w: ||
w: ||
w: ||
V:2
 x | x6 | E3- E2 E | x6 | x6 | x6 | x6 | x6 | x6 || x6 | x6 | x6 | x6 | x6 | x6 | x6 | x6 | x6 | %18
 x6 | x6 | x6 | x6 | x6 | x6 | x6 |] %25
V:3
 [E,B,] | [E,B,]2 [E,G,] [B,,F,]2 [B,,A,] | [E,G,]3- [E,G,]2 [E,G,] | %3
w: |||
 [B,,B,]2 [B,,B,] [B,,B,]2 [B,,B,] | [E,B,]3- [E,B,]2 [E,G,] | [E,G,]2 [E,B,] B,2 [G,E] | %6
w: ||* * Then, *|
 [A,E]2 [F,B,] [E,B,]2 [E,E] | [F,D]2 [F,B,] [F,B,]2 [F,=A,] | [B,,B,]3- [B,,B,]2 z || %9
w: |||
 [E,G,]3 [E,G,][E,A,][E,G,] | [F,B,]3 [F,B,]3 | [B,,B,]3 [B,,B,][B,,C][B,,D] | [E,E]3- [E,E]2 z | %13
w: up and be do-|ing, Go,|work while you may;|Life *|
 [A,E]3 [A,E][A,D][A,C] | [E,B,]3 [E,G,]2 [E,G,] | [B,,F,]3 [B,,F,]2 [B,,B,] | [E,B,]3- [E,B,]2 z | %17
w: swift- ly is fleet-|ing, Why long-|er de- lay?|Press *|
 [E,G,]3 [D,F,][D,F,][D,F,] | [C,G,]3 [F,=A,]3 | B,3 [G,=B,][G,B,][G,B,] | C3- C2 z | %21
w: on- ward to bat-|tle, Be|strong in the Lord;|He’ll *|
 [A,C]3 [A,C][A,D][A,E] | [E,E]3 [E,B,]3 | [B,,D]3 [B,,D][B,,C][B,,B,] | [E,B,]6 |] %25
w: bear you up brave-|ly, Go,|trust- ing His Word.||
V:4
 x | x6 | x6 | x6 | x6 | x3 (E,F,) x | x6 | x6 | x6 || x6 | x6 | x6 | x6 | x6 | x6 | x6 | x6 | x6 | %18
 x6 | =B,3 x3 | C3- C2 x | x6 | x6 | x6 | x6 |] %25

